X: 38
T: The Editor's Favorite
T: Strathspey, A
L: 1/16
M: C
K: A
|: c2| A4 ((3e2f2g2) a1e3f4| (e1c3) e3f1 e3c1 B1c3| A4 ((3e2f2g2) a1e3 f4| (e1c3) B3d1 c3A1 A2:| 
|: d2| c4 ((3e2c2c2) A3c1 e1c3| d4f1d3 f1a3 f3d1| c3d1 e3c1 A3c1 e3=g1| f1d3 e3c1 B1B1B2 B2:| 
S: Transcription by Karen Beaton
B: DunGreen Collection (the apparent source of the title)
D: Theresa, Donald and Marie MacLellan, The MacLellan Trio, Breton Books and Music
